24x24/apps/trojita.svg

<svg xmlns="http://www.w3.org/2000/svg" width="24" height="24" version="1">
 <g transform="translate(1,1)">
  <path fill="#a8a8a8" d="m11 0.000068-9.545 7.1619c-0.02055 0.01335-0.03915 0.02915-0.058595 0.04395l-0.0117 0.0088v0.001c-0.2327 0.1825-0.3847 0.4635-0.3847 0.784v4c0 0.554 0.446 1 1 1h18c0.554 0 1-0.446 1-1v-4c0-0.3275-0.15848-0.6147-0.40039-0.7969l0.004-0.00585z"/>
  <rect opacity=".2" width="32" height="26" x="144" y="243" rx="2" ry="2" transform="matrix(.5 0 0 .5 -69 -119)"/>
  <path fill="#fff" opacity=".1" d="m11 0.000068-9.545 7.1619c-0.02055 0.01335-0.03915 0.02915-0.058595 0.04395l-0.0117 0.0088v0.001c-0.2327 0.1825-0.3847 0.4635-0.3847 0.784v0.5c0-0.32025 0.15196-0.60145 0.38476-0.7842v-0.001l0.0117-0.0088c0.01945-0.0148 0.03805-0.0306 0.058595-0.04395l9.545-7.162 9.6035 7.1975-0.004 0.00585c0.243 0.182 0.401 0.469 0.401 0.7965v-0.5c0-0.3275-0.158-0.6147-0.4-0.7969l0.004-0.00585-9.604-7.197z"/>
  <g transform="translate(-1,-1)">
   <rect fill="#31afe1" width="16" height="13" x="4" y="3" rx="1" ry="1"/>
   <path fill="#fff" opacity=".1" d="m5 3c-0.554 0-1 0.446-1 1v0.5c0-0.554 0.446-1 1-1h14c0.554 0 1 0.446 1 1v-0.5c0-0.554-0.446-1-1-1z"/>
  </g>
  <path fill="#fff" d="m11 4c-2.2091 0-4 1.7908-4 4 0 2.209 1.7909 4 4 4h2.5s0.46875 0 0.5-0.5c0-0.5-0.5-0.5-0.5-0.5h-2.5c-1.6568 0-3-1.3431-3-3 0-1.6568 1.3431-3 3-3 1.6568 0 3 1.3431 3 3v0.5c0 0.27614-0.22386 0.5-0.5 0.5s-0.5-0.22386-0.5-0.5v-0.5c0-1.1045-0.89545-2-2-2-1.1045 0-2 0.89545-2 2 0 1.1045 0.89545 2 2 2 0.5231 0 0.99515-0.20545 1.3515-0.5342 0.285 0.3385 0.7055 0.534 1.1485 0.534 0.8284 0 1.5-0.6716 1.5-1.5v-0.5c0-2.2091-1.7908-4-4-4zm0 3c0.5523 0 1 0.44771 1 1 0 0.55228-0.44771 1-1 1-0.55228 0-1-0.44771-1-1 0-0.55228 0.44771-1 1-1z"/>
  <path fill="#bebebe" d="m1 8 19 13h-18c-0.554 0-1-0.446-1-1z"/>
  <path fill="#d2d2d2" d="m20 21c0.554 0 1-0.446 1-1v-12l-19 13z"/>
  <path opacity=".2" d="m1 20v0.5c0 0.554 0.446 1 1 1h18c0.554 0 1-0.446 1-1v-0.5c0 0.554-0.446 1-1 1h-18c-0.554 0-1-0.446-1-1z"/>
 </g>
</svg>

<svg xmlns="http://www.w3.org/2000/svg" width="24" height="24" version="1"><g transform="translate(1 1)"><path fill="#a8a8a8" d="M11 0 1.455 7.162c-.02.013-.04.03-.059.044l-.011.009A.993.993 0 0 0 1 8v4c0 .554.446 1 1 1h18c.554 0 1-.446 1-1V8a.995.995 0 0 0-.4-.797l.004-.006z"/><rect opacity=".2" width="32" height="26" x="144" y="243" rx="2" ry="2" transform="matrix(.5 0 0 .5 -69 -119)"/><path fill="#fff" opacity=".1" d="M11 0 1.455 7.162c-.02.013-.04.03-.059.044l-.011.009A.993.993 0 0 0 1 8v.5c0-.32.152-.602.385-.784v-.001l.011-.01c.02-.014.039-.03.06-.043L11 .5l9.604 7.197-.004.006a.991.991 0 0 1 .4.797V8a.994.994 0 0 0-.4-.797l.005-.006L11 0z"/><g transform="translate(-1 -1)"><rect fill="#31afe1" width="16" height="13" x="4" y="3" rx="1" ry="1"/><path fill="#fff" opacity=".1" d="M5 3c-.554 0-1 .446-1 1v.5c0-.554.446-1 1-1h14c.554 0 1 .446 1 1V4c0-.554-.446-1-1-1z"/></g><path fill="#fff" d="M11 4a4 4 0 1 0 0 8h2.5s.469 0 .5-.5c0-.5-.5-.5-.5-.5H11a3 3 0 1 1 3-3v.5a.5.5 0 0 1-1 0V8a2 2 0 1 0-2 2c.523 0 .995-.205 1.351-.534A1.502 1.502 0 0 0 15 8.5V8a4 4 0 0 0-4-4zm0 3a1 1 0 1 1 0 2 1 1 0 0 1 0-2z"/><path fill="#bebebe" d="m1 8 19 13H2c-.554 0-1-.446-1-1z"/><path fill="#d2d2d2" d="M20 21c.554 0 1-.446 1-1V8L2 21z"/><path opacity=".2" d="M1 20v.5c0 .554.446 1 1 1h18c.554 0 1-.446 1-1V20c0 .554-.446 1-1 1H2c-.554 0-1-.446-1-1z"/></g></svg>
